app/dist/common/images/bsquare.svg

<svg height="18" viewBox="0 0 18 18" width="18" xmlns="http://www.w3.org/2000/svg"><path d="m0 0h18v18h-18z" fill="#f0f3fa"/><path d="m11.74 5.01 3.26 1.18-1.64 4.54c0-.14-.02-.27-.05-.41-.22-1.24-.81-1.88-1.7-2.15v-.02a2.04 2.04 0 0 0 .66-2.02c-.08-.44-.27-.82-.53-1.12zm-2.21-.8-3.33-1.21-.67 1.84 3.07-.53c.33-.06.65-.1.94-.1zm-4.66 2.43-1.87 5.16 2.97 1.07-1.1-6.24zm4.2 7.36 2.74 1 .86-2.38c-.55.6-1.4 1-2.34 1.16l-1.26.23zm-.47-8.12-1.76.3.4 2.25 1.86-.33c.95-.16 1.4-.64 1.25-1.45-.14-.77-.8-.94-1.77-.77zm-.63 6.74 1.82-.31c1.02-.18 1.7-.62 1.52-1.64-.16-.93-.9-1.18-2.03-.99l-1.78.32.46 2.63z" fill="#ff7f2b"/></svg>

<!-- by TradingView --><svg xmlns="http://www.w3.org/2000/svg" width="18" height="18" viewBox="0 0 18 18"><path fill="#F0F3FA" d="M0 0h18v18H0z"/><path d="M11.74 5.01 15 6.19l-1.64 4.54c0-.14-.02-.27-.05-.41-.22-1.24-.81-1.88-1.7-2.15v-.02a2.04 2.04 0 0 0 .66-2.02c-.08-.44-.27-.82-.53-1.12ZM9.53 4.21 6.2 3l-.67 1.84 3.07-.53c.33-.06.65-.1.94-.1ZM4.87 6.64 3 11.8l2.97 1.07-1.1-6.24ZM9.07 14l2.74 1 .86-2.38c-.55.6-1.4 1-2.34 1.16l-1.26.23ZM8.6 5.88l-1.76.3.4 2.25L9.1 8.1c.95-.16 1.4-.64 1.25-1.45-.14-.77-.8-.94-1.77-.77ZM7.97 12.62l1.82-.31c1.02-.18 1.7-.62 1.52-1.64-.16-.93-.9-1.18-2.03-.99L7.5 10l.46 2.63Z" fill="#FF7F2B"/></svg>
